resources/svg/android-o.svg

<svg width="15" height="15" viewBox="0 0 15 15" fill="none" xmlns="http://www.w3.org/2000/svg">
<path d="M2.5 2.5L4.5 5.5M12.5 2.5L10.5 5.5M4 9.5H5M10 9.5H11M1.5 12.5V10.5C1.5 7.18629 4.18629 4.5 7.5 4.5C10.8137 4.5 13.5 7.18629 13.5 10.5V12.5H1.5Z" stroke="black"/>
</svg>

<svg viewBox="0 0 15 15" fill="none" xmlns="http://www.w3.org/2000/svg" fill="currentColor"><path d="M2.5 2.5l2 3m8-3l-2 3M4 9.5h1m5 0h1m-9.5 3v-2a6 6 0 1112 0v2h-12z" stroke="currentColor"/></svg>
